X: 0
T: Was lebet, was schwebet
L: 1/4
M: none
Q: 1/4=320
K: D
[V: P1]  A2 | D2 D2 E2 | F2 F2 A2 | G3 F E2 | F3 F F2 | E2 D2 E2 | F2 ^G2 A2 | A2 B2 ^G2 | A4 c2 | d2 d2 =c2 | B2 B2 A2 | G2 A2 F2 | E3 E E E | A2 A2 F2 | B2 c2 d2 | d2 e2 c2 | d4|]
[V: P2]  E2 | A,2 B,2 C2 | D2 D2 E2 | D3 D C2 | D3 D D2 | (B, C) D2 C2 | D2 B,2 A,2 | F2 F2 E2 | E4 E2 | D2 (F G) A2 | A2 G2 F2 | E2 E2 D2 | C3 C C C | D2 E2 D2 | D2 G2 F2 | G2 G2 E2 | F4|]
[V: P3]  A,2 | F,2 G,2 G,2 | A,2 A,2 A,2 | B,3 A, A,2 | A,3 A, A,2 | G,2 A,2 G,2 | A,2 D2 C2 | D2 D2 B,2 | C4 A,2 | A,2 A,2 D2 | D2 D2 D2 | B,2 A,2 A,2 | A,3 A, A, A, | A,2 A,2 A,2 | G,2 E2 D2 | B,2 B,2 A,2 | A,4|]
[V: P4]  C,2 | D,2 (G, F,) E,2 | D,2 D,2 C,2 | B,,3 D, A,,2 | D,3 D, D,2 | G,2 F,2 E,2 | D,2 E,2 F,2 | D,2 B,,2 E,2 | A,4 A,2 | F,2 (D, E,) F,2 | G,2 G,2 D,2 | E,2 C,2 D,2 | A,,3 A, G, G, | F,2 C,2 D,2 | G,2 A,2 B,2 | G,2 E,2 A,2 | D,4|]

